X:1
T:Title
%%score { 1 | ( 2 3 ) }
L:1/8
M:3/4
K:Bb
V:1 treble nm="Grand Piano"
V:2 bass 
V:3 bass 
V:1
 z2 z[Q:1/4=82] F FF | [Fd]3 B [Ec]d | [DB]3 [DB] [EA][F_AB] | [Gc]3 B [EG]B | [DF]3 F [EF]A | %5
 [Ec]3 d cB | [Fd]3 d ed | [=Ec]3 [EG] [EA][EB] | [Ec]3 [CF] [DF][EF] | [Fd]3 B [Ec]d | %10
 [DB]3 [DB] [EA].[FB] | [Ge]3 e [GB]c | [Fd]3 d _d=d | [df]3 [Bd] [Ac][_AB] | [GB]3 c [GB]G | %15
 [DF]B d2 [Ec]2 |[M:3/8] [DB]3 | [DB][EA][FB] |[M:3/4] c3 e dc | Bc d2 d2 | e3 e dd | c3 c cc | %22
 c3 d [=Ec][Ed] | c4 d2 | e3 e dd | c3 F FF | [Fd]3 [DB] [Ec][Fd] | [DB]3 [DB] [EA][F_AB] | %28
 [Ge]3 [Ge] [GB][^Fc] | [Fd]3 [Fd] [=E_d][F=d] | [Ff]3 [Fd] [Fc][_AB] | [GB]3 [Gc] [GB]G | %32
 F2 d2 c2 |[M:3/8] [DB]3 |] %34
V:2
 z2 z D DD | B,,F, z D z F | B,,F, B,B,, C,D, | E,G, z[K:treble] G z G | D,F, z D z E | %5
 F,,C, z[K:treble] F ED | B,,F, z[K:treble] F GF | C,G, CB, A,G, | F,G, F,E, D,C, | B,,F, z D z F | %10
 B,,F, B,B,, .C,>_A | E,G, z[K:treble] G z ^F | B,,F, z[K:treble] F =EF | B,,F, B,B,, C,D, | %14
 E,G, z A z E | z[K:treble] D F2[K:bass] [F,,F,]2 |[M:3/8] [B,,F,]3 | [B,,F,][C,F,][D,B,] | %18
[M:3/4] [F,A,F]3 [F,CF] [F,B,F][F,A,E] | [G,B,D][F,A,F] [B,F]2 [B,F]2 | [A,CF]3 [A,CF] [B,F][B,F] | %21
 [F,A,F]3 [F,A,F] [F,A,F][F,A,F] | [G,B,=E]3 [G,B,E] [C,B,][C,B,] | [F,A,F]4 [F,B,F]2 | %24
 [F,CF]3 [F,CF] [F,B,F][F,B,F] | [F,A,F]3 [E,A,] [D,B,][C,A,] | [B,,B,]3 [B,,B,] [F,A,][F,A,] | %27
 [B,,B,]3 [B,,B,] [C,F,][D,B,] | [E,B,]3 [E,B,] [E,B,][E,B,] | [B,,B,]3 [B,,B,] [B,,B,][B,,B,] | %30
 [B,D]3 [B,,B,] [C,A,][D,B,] | [E,E]3 [E,E] [E,E][E,B,E] | D2 F2 [F,A,E]2 |[M:3/8] [B,,B,]3 |] %34
V:3
 x6 | z2 B,2 F,2 | x6 | z2 B,2[K:treble] E,2 | z2 B,2 C,2 | z2 F,2[K:treble] z2 | %6
 z2 B,2[K:treble] z2 | x6 | x6 | z2 B,2 F,2 | z2 z2 z D, | z2 B,2[K:treble] E,2 | %12
 z2 B,2[K:treble] z2 | x6 | z2 B,2 E,2 | F,4[K:treble][K:bass] z2 |[M:3/8] x3 | x3 |[M:3/4] x6 | %19
 x6 | x6 | x6 | x6 | x6 | x6 | x6 | x6 | x6 | x6 | x6 | x6 | x6 | [F,B,]4 z2 |[M:3/8] x3 |] %34

